X:1

T:Road to Athlone, The

M:9/8

L:1/8

R:Slip Jig

S:O’Neill – Music of Ireland (1903), No. 1170

Z:AK/Fiddler’s Companion

K:F

f | cdB ABG FAc | cAF FAc d2f | cdB ABG FAc | fga gfe d2 :|

|: c | fef gfe dcA | fef gfe d2 f/g/ | aff gfe def | cAF FAc c2 :|

                       

ROAD TO ATLANTA. American. Composed by fiddler Will Welling. Great Meadow Music GMM 2003, “Rodney Miller’s Airdance” (2000).

                       

ROAD TO BALINTORE. Scottish, Slow Air (3/4 time). D Major. Standard. One part. Martin (Ceol na Fidhle), vol. 1, 1991; pg. 16.

           

ROAD TO BALLINAKILL, THE. Irish, Jig. G Major. Standard. AABB. Composed by flute player Mike Rafferty, whose birthplace was the East Galway town of Ballinakill. Black (Music’s the Very Best Thing), 1996; No. 319, pg. 171. Kells Music KM 9509, Mike & Mary Rafferty - “The Dangerous Reel.”

